X: 37184
T: Sir Reginald MacDonald
R: reel
M: 4/4
K: Amajor
f|edcB A/A/A Ac|B/B/B Bc defa|edcB A/A/A Ac|BEGB A/A/A A:|
f|eAcA eAcA|B/B/B Bc defa|eAcA eAcA|BEGB A/A/A Af|
eAcA eAcA|B/B/B Bc defg|aefd cAAc|BEGB A/A/A A||

